X:205
T:Allens Reel
O:england
M:4/4
L:1/8
C:Web Acheson
R:Reel
K:A
c2 B2|:Aceg aece|Adfa ecA2|EGBe Acea|Bdfb e2 (3efg|
afdf ecAc|dBGB AFDF|EGBe Acea|gedB A2z2:|
|:B2GB eeBe|ggeg bgeg|fBdf afdf|fedc BAGA|
BBGB eeBe|ggeg bgeg|fBdf afdf|1efe^d e2z2:|2efe^d edcB||


